images/3-6.svg

<svg id="Layer_1" xmlns="http://www.w3.org/2000/svg" viewBox="0 0 561 252"><style>.st0{fill:none;stroke:#D1D3D4;stroke-width:0.5;stroke-linejoin:round;stroke-miterlimit:10;} .st1{fill:none;stroke:#414042;stroke-width:0.5;stroke-linejoin:round;stroke-miterlimit:10;} .st2{fill:#B5B5B5;stroke:#065296;stroke-width:2.25;stroke-linecap:round;stroke-linejoin:round;stroke-miterlimit:10;} .st3{fill:none;stroke:#21B573;stroke-width:2.25;stroke-linecap:round;stroke-linejoin:round;stroke-miterlimit:10;} .st4{fill:#414042;} .st5{font-family:&apos;Lato&apos;;font-weight:400;} .st6{font-size:10px;} .st7{fill:#065296;} .st8{font-family:&apos;Lato&apos;;font-weight:700;} .st9{fill:#21B573;}</style><path class="st0" d="M42.7 8.5h513.6M42.7 33.9h513.6M42.7 58.6h513.6M42.7 84.1h513.6M42.7 108.8h513.6M42.7 134.2h513.6M42.7 158.9h513.6M42.7 184.4h513.6M42.7 209.1h513.6"/><path class="st1" d="M42.7 234.2h513.6"/><path class="st2" d="M526.5 123.6l15 20.5m-29.1-15.5l14.1-4.9m-29.1 10.5l15-5.7m-29.1 5.7h14.1m-29.2 5l15-4.9m-30 9.8l15-4.9m-29.1 4.9h14.1m-29.1 0h15M410 154l14.1-9.9M395 154h15m-30.1 4.9l15-4.9m-29.1 0l14.1 4.9m-29.1-14.8l15 9.9m-30-14.8l15 4.9m-29.1-15.5l14.1 10.6m-29.1-20.5l15 9.9m-29.1-14.9l14.1 4.9m-29.2-4.9h15m-30 5l15-4.9m-29.1 14.8l14.1-9.9m-29.1 15.5l15-5.7m-29.1 10.7l14.1-4.9m-29.1-.1l15 4.9m-30.1.1l15-4.9m-29 9.8l14.1-4.9m-29.2 4.9h15m-29.1 0h14.1M131 154l15-9.9m-30 19.8l15-9.9m-29.1 9.9H116M86.9 154l15 9.9m-29.1-19.8l14.1 9.9m-29.2-35.3l15 25.4m-30-35.3l15 9.9"/><path class="st3" d="M526.5 53.7l15 9.9m-29.1 9.9l14.1-19.8m-29.1 14.8l15 4.9m-29.1.1l14.1-4.9M468.2 94l15-20.5m-30 40.2l15-19.8m-29.1 19.8h14.1m-29.1 5l15-4.9m-29.1 4.9h14.1M395 94l15 24.7m-30.1-9.9L395 94m-29.2 29.6l14.1-14.8m-29.1 0l15 14.8m-30-14.8h15m-29.1-9.9l14.1 9.9m-29.1-9.9h15m-29.1 0h14.1M277.5 89l15 9.9m-30-9.9h15m-29.1 9.9l14.1-9.9m-29.1 9.9h15m-29.1 9.9l14.1-9.9m-29.1 19.8l15-9.9m-30.1-5l15 14.8m-29 .1l14.1-14.8m-29.2 9.8l15 4.9m-29.1.1l14.1-4.9M131 128.6l15-9.9m-30 4.9l15 4.9m-29.1.1l14.1-4.9m-29.1-19.9l15 24.7m-29.1-9.8l14.1-14.8M57.7 23.3l15 95.4m-30-84.8l15-10.6"/><text transform="translate(14.963 237.3)" class="st4 st5 st6">8.0%</text><text transform="translate(14.963 212.28)" class="st4 st5 st6">8.5%</text><text transform="translate(14.963 187.262)" class="st4 st5 st6">9.0%</text><text transform="translate(14.963 162.244)" class="st4 st5 st6">9.5%</text><text transform="translate(9.515 137.225)" class="st4 st5 st6">10.0%</text><text transform="translate(9.515 112.207)" class="st4 st5 st6">10.5%</text><text transform="translate(9.515 87.188)" class="st4 st5 st6">11.0%</text><text transform="translate(9.515 62.17)" class="st4 st5 st6">11.5%</text><text transform="translate(9.515 37.15)" class="st4 st5 st6">12.0%</text><text transform="translate(9.515 12.133)" class="st4 st5 st6">12.5%</text><text transform="translate(298.13 154.072)"><tspan x="0" y="0" class="st7 st8 st6">U.S. Average</tspan></text><text transform="translate(256.09 81.964)" class="st9 st8 st6">California</text><path class="st1" d="M43.1 231.4v6.1m60.4-6.1v6.1m60.3-6.1v6.1m60.4-6.1v6.1m60.4-6.1v6.1m60.4-6.1v6.1m60.4-6.1v6.1m60.3-6.1v6.1m60.4-6.1v6.1"/><text transform="translate(30.886 249.504)"><tspan x="0" y="0" class="st4 st5 st6">1977</tspan></text><text transform="translate(91.258 249.504)"><tspan x="0" y="0" class="st4 st5 st6">1981</tspan></text><text transform="translate(151.64 249.504)"><tspan x="0" y="0" class="st4 st5 st6">1985</tspan></text><text transform="translate(212.002 249.504)"><tspan x="0" y="0" class="st4 st5 st6">1989</tspan></text><text transform="translate(272.383 249.504)"><tspan x="0" y="0" class="st4 st5 st6">1993</tspan></text><text transform="translate(332.755 249.504)"><tspan x="0" y="0" class="st4 st5 st6">1997</tspan></text><text transform="translate(393.128 249.504)"><tspan x="0" y="0" class="st4 st5 st6">2001</tspan></text><text transform="translate(453.5 249.504)"><tspan x="0" y="0" class="st4 st5 st6">2005</tspan></text><text transform="translate(513.88 249.504)"><tspan x="0" y="0" class="st4 st5 st6">2009</tspan></text></svg>

<?xml version="1.0" encoding="utf-8"?>
<!-- Generator: Adobe Illustrator 19.1.0, SVG Export Plug-In . SVG Version: 6.00 Build 0)  -->
<svg version="1.1" id="Layer_1" xmlns="http://www.w3.org/2000/svg" xmlns:xlink="http://www.w3.org/1999/xlink" x="0px" y="0px"
	 viewBox="0 0 561 252" style="enable-background:new 0 0 561 252;" xml:space="preserve">
<style type="text/css">
	.st0{fill:none;stroke:#D1D3D4;stroke-width:0.5;stroke-linejoin:round;stroke-miterlimit:10;}
	.st1{fill:none;stroke:#414042;stroke-width:0.5;stroke-linejoin:round;stroke-miterlimit:10;}
	.st2{fill:#B5B5B5;stroke:#065296;stroke-width:2.25;stroke-linecap:round;stroke-linejoin:round;stroke-miterlimit:10;}
	.st3{fill:none;stroke:#21B573;stroke-width:2.25;stroke-linecap:round;stroke-linejoin:round;stroke-miterlimit:10;}
	.st4{fill:#414042;}
	.st5{font-family:'Lato-Regular';}
	.st6{font-size:10px;}
	.st7{fill:#065296;}
	.st8{font-family:'Lato-Heavy';}
	.st9{fill:#21B573;}
</style>
<path class="st0" d="M42.7,8.5h513.6 M42.7,33.9h513.6 M42.7,58.6h513.6 M42.7,84.1h513.6 M42.7,108.8h513.6 M42.7,134.2h513.6
	 M42.7,158.9h513.6 M42.7,184.4h513.6 M42.7,209.1h513.6"/>
<line class="st1" x1="42.7" y1="234.2" x2="556.3" y2="234.2"/>
<path class="st2" d="M526.5,123.6l15,20.5 M512.4,128.6l14.1-4.9 M497.4,134.2l15-5.7 M483.3,134.2h14.1 M468.2,139.2l15-4.9
	 M453.2,144.1l15-4.9 M439.1,144.1h14.1 M424.1,144.1h15 M410,154l14.1-9.9 M395,154h15 M379.9,158.9l15-4.9 M365.8,154l14.1,4.9
	 M350.8,144.1l15,9.9 M335.8,139.2l15,4.9 M321.7,128.6l14.1,10.6 M306.7,118.7l15,9.9 M292.6,113.7l14.1,4.9 M277.5,113.7h15
	 M262.5,118.7l15-4.9 M248.4,128.6l14.1-9.9 M233.4,134.2l15-5.7 M219.3,139.2l14.1-4.9 M204.3,134.2l15,4.9 M189.2,139.2l15-4.9
	 M175.2,144.1l14.1-4.9 M160.1,144.1h15 M146,144.1h14.1 M131,154l15-9.9 M116,163.9l15-9.9 M101.9,163.9H116 M86.9,154l15,9.9
	 M72.8,144.1l14.1,9.9 M57.7,118.7l15,25.4 M42.7,108.8l15,9.9"/>
<path class="st3" d="M526.5,53.7l15,9.9 M512.4,73.5l14.1-19.8 M497.4,68.5l15,4.9 M483.3,73.5l14.1-4.9 M468.2,94l15-20.5
	 M453.2,113.7l15-19.8 M439.1,113.7h14.1 M424.1,118.7l15-4.9 M410,118.7h14.1 M395,94l15,24.7 M379.9,108.8L395,94 M365.8,123.6
	l14.1-14.8 M350.8,108.8l15,14.8 M335.8,108.8h15 M321.7,98.9l14.1,9.9 M306.7,98.9h15 M292.6,98.9h14.1 M277.5,89l15,9.9 M262.5,89
	h15 M248.4,98.9l14.1-9.9 M233.4,98.9h15 M219.3,108.8l14.1-9.9 M204.3,118.7l15-9.9 M189.2,103.8l15,14.8 M175.2,118.7l14.1-14.8
	 M160.1,113.7l15,4.9 M146,118.7l14.1-4.9 M131,128.6l15-9.9 M116,123.6l15,4.9 M101.9,128.6l14.1-4.9 M86.9,103.8l15,24.7
	 M72.8,118.7l14.1-14.8 M57.7,23.3l15,95.4 M42.7,33.9l15-10.6"/>
<text transform="matrix(1 0 0 1 14.9629 237.2999)" class="st4 st5 st6">8.0% </text>
<text transform="matrix(1 0 0 1 14.9629 212.2811)" class="st4 st5 st6">8.5% </text>
<text transform="matrix(1 0 0 1 14.9629 187.2624)" class="st4 st5 st6">9.0% </text>
<text transform="matrix(1 0 0 1 14.9629 162.2437)" class="st4 st5 st6">9.5% </text>
<text transform="matrix(1 0 0 1 9.5146 137.2249)" class="st4 st5 st6">10.0%</text>
<text transform="matrix(1 0 0 1 9.5146 112.2067)" class="st4 st5 st6">10.5% </text>
<text transform="matrix(1 0 0 1 9.5146 87.188)" class="st4 st5 st6">11.0% </text>
<text transform="matrix(1 0 0 1 9.5146 62.1698)" class="st4 st5 st6">11.5% </text>
<text transform="matrix(1 0 0 1 9.5146 37.151)" class="st4 st5 st6">12.0% </text>
<text transform="matrix(1 0 0 1 9.5146 12.1325)" class="st4 st5 st6">12.5% </text>
<text transform="matrix(1 0 0 1 298.1313 154.0723)"><tspan x="0" y="0" class="st7 st8 st6">U</tspan><tspan x="7.2" y="0" class="st7 st8 st6">.S</tspan><tspan x="15.1" y="0" class="st7 st8 st6">.</tspan><tspan x="17.2" y="0" class="st7 st8 st6"> </tspan><tspan x="19.4" y="0" class="st7 st8 st6">A</tspan><tspan x="26.4" y="0" class="st7 st8 st6">verage </tspan></text>
<text transform="matrix(1 0 0 1 256.0889 81.9639)" class="st9 st8 st6">California</text>
<path class="st1" d="M43.1,231.4v6.1 M103.5,231.4v6.1 M163.8,231.4v6.1 M224.2,231.4v6.1 M284.6,231.4v6.1 M345,231.4v6.1
	 M405.4,231.4v6.1 M465.7,231.4v6.1 M526.1,231.4v6.1"/>
<g>
	<text transform="matrix(1 0 0 1 30.8859 249.5039)"><tspan x="0" y="0" class="st4 st5 st6">1</tspan><tspan x="5.8" y="0" class="st4 st5 st6">9</tspan><tspan x="11.7" y="0" class="st4 st5 st6">7</tspan><tspan x="17.5" y="0" class="st4 st5 st6">7</tspan></text>
</g>
<g>
	<text transform="matrix(1 0 0 1 91.258 249.5039)"><tspan x="0" y="0" class="st4 st5 st6">1</tspan><tspan x="5.8" y="0" class="st4 st5 st6">9</tspan><tspan x="11.7" y="0" class="st4 st5 st6">8</tspan><tspan x="17.5" y="0" class="st4 st5 st6">1</tspan></text>
</g>
<g>
	<text transform="matrix(1 0 0 1 151.6388 249.5039)"><tspan x="0" y="0" class="st4 st5 st6">1</tspan><tspan x="5.8" y="0" class="st4 st5 st6">9</tspan><tspan x="11.7" y="0" class="st4 st5 st6">8</tspan><tspan x="17.5" y="0" class="st4 st5 st6">5</tspan></text>
</g>
<g>
	<text transform="matrix(1 0 0 1 212.0021 249.5039)"><tspan x="0" y="0" class="st4 st5 st6">1</tspan><tspan x="5.8" y="0" class="st4 st5 st6">9</tspan><tspan x="11.7" y="0" class="st4 st5 st6">8</tspan><tspan x="17.5" y="0" class="st4 st5 st6">9</tspan></text>
</g>
<g>
	<text transform="matrix(1 0 0 1 272.383 249.5039)"><tspan x="0" y="0" class="st4 st5 st6">1</tspan><tspan x="5.8" y="0" class="st4 st5 st6">9</tspan><tspan x="11.7" y="0" class="st4 st5 st6">9</tspan><tspan x="17.5" y="0" class="st4 st5 st6">3</tspan></text>
</g>
<g>
	<text transform="matrix(1 0 0 1 332.7555 249.5039)"><tspan x="0" y="0" class="st4 st5 st6">1</tspan><tspan x="5.8" y="0" class="st4 st5 st6">9</tspan><tspan x="11.7" y="0" class="st4 st5 st6">9</tspan><tspan x="17.5" y="0" class="st4 st5 st6">7</tspan></text>
</g>
<g>
	<text transform="matrix(1 0 0 1 393.1276 249.5039)"><tspan x="0" y="0" class="st4 st5 st6">2</tspan><tspan x="5.8" y="0" class="st4 st5 st6">0</tspan><tspan x="11.7" y="0" class="st4 st5 st6">0</tspan><tspan x="17.5" y="0" class="st4 st5 st6">1</tspan></text>
</g>
<g>
	<text transform="matrix(1 0 0 1 453.4997 249.5039)"><tspan x="0" y="0" class="st4 st5 st6">2</tspan><tspan x="5.8" y="0" class="st4 st5 st6">0</tspan><tspan x="11.7" y="0" class="st4 st5 st6">0</tspan><tspan x="17.5" y="0" class="st4 st5 st6">5</tspan></text>
</g>
<g>
	<text transform="matrix(1 0 0 1 513.8806 249.5039)"><tspan x="0" y="0" class="st4 st5 st6">2</tspan><tspan x="5.8" y="0" class="st4 st5 st6">0</tspan><tspan x="11.7" y="0" class="st4 st5 st6">0</tspan><tspan x="17.5" y="0" class="st4 st5 st6">9</tspan></text>
</g>
</svg>
